assets/images/svg/wallet-fill.svg

<svg width="25" height="24" viewBox="0 0 25 24" fill="none" xmlns="http://www.w3.org/2000/svg">
<path d="M22.9067 12.6206V14.6806C22.9067 15.2406 22.4467 15.7006 21.8767 15.7006H19.9467C18.8667 15.7006 17.8767 14.9106 17.7867 13.8306C17.7267 13.2006 17.9667 12.6106 18.3867 12.2006C18.7567 11.8206 19.2667 11.6006 19.8267 11.6006H21.8767C22.4467 11.6006 22.9067 12.0606 22.9067 12.6206Z" fill="#F58218"/>
<path d="M16.2865 13.9594C16.1965 12.9094 16.5765 11.8794 17.3365 11.1294C17.9765 10.4794 18.8665 10.0994 19.8265 10.0994H20.3965C20.6765 10.0994 20.9065 9.86941 20.8665 9.58941C20.5965 7.64941 18.9165 6.14941 16.9065 6.14941H6.90649C4.69649 6.14941 2.90649 7.93941 2.90649 10.1494V17.1494C2.90649 19.3594 4.69649 21.1494 6.90649 21.1494H16.9065C18.9265 21.1494 20.5965 19.6494 20.8665 17.7094C20.9065 17.4294 20.6765 17.1994 20.3965 17.1994H19.9465C18.0465 17.1994 16.4465 15.7794 16.2865 13.9594ZM13.9065 11.8994H7.90649C7.49649 11.8994 7.15649 11.5694 7.15649 11.1494C7.15649 10.7294 7.49649 10.3994 7.90649 10.3994H13.9065C14.3165 10.3994 14.6565 10.7394 14.6565 11.1494C14.6565 11.5594 14.3165 11.8994 13.9065 11.8994Z" fill="#F58218"/>
<path d="M15.1171 3.98059C15.3771 4.25059 15.1471 4.65059 14.7671 4.65059H6.93713C5.84713 4.65059 4.82713 4.97059 3.97713 5.52059C3.58713 5.77059 3.05713 5.50059 3.24713 5.07059C3.80713 3.76059 5.11713 2.85059 6.62713 2.85059H12.2471C13.4071 2.85059 14.4371 3.26059 15.1171 3.98059Z" fill="#F58218"/>
</svg>

<svg xmlns="http://www.w3.org/2000/svg" width="25" height="24" fill="none" viewBox="0 0 25 24"><path fill="#f58218" d="M22.907 12.62v2.06c0 .56-.46 1.02-1.03 1.02h-1.93c-1.08 0-2.07-.79-2.16-1.87-.06-.63.18-1.22.6-1.63.37-.38.88-.6 1.44-.6h2.05c.57 0 1.03.46 1.03 1.02"/><path fill="#f58218" d="M16.287 13.96c-.09-1.05.29-2.08 1.05-2.83.64-.65 1.53-1.03 2.49-1.03h.57c.28 0 .51-.23.47-.51a4.01 4.01 0 0 0-3.96-3.44h-10c-2.21 0-4 1.79-4 4v7c0 2.21 1.79 4 4 4h10a4 4 0 0 0 3.96-3.44c.04-.28-.19-.51-.47-.51h-.45c-1.9 0-3.5-1.42-3.66-3.24m-2.38-2.06h-6a.749.749 0 1 1 0-1.5h6c.41 0 .75.34.75.75s-.34.75-.75.75M15.117 3.98c.26.27.03.67-.35.67h-7.83c-1.09 0-2.11.32-2.96.87-.39.25-.92-.02-.73-.45a3.68 3.68 0 0 1 3.38-2.22h5.62c1.16 0 2.19.41 2.87 1.13"/></svg>
